brandFactory_export/3.Masa/No me gusta_Dislike_3Masa.svg

<?xml version="1.0" encoding="UTF-8"?>
<svg width="24px" height="24px" viewBox="0 0 24 24" version="1.1" xmlns="http://www.w3.org/2000/svg" xmlns:xlink="http://www.w3.org/1999/xlink">
    <title>3.Masa/No me gusta_Dislike_3Masa</title>
    <g id="Symbols" stroke="none" stroke-width="1" fill="none" fill-rule="evenodd">
        <g id="3.Masa/No-me-gusta_Dislike_3Masa" fill="#5CB615" fill-rule="nonzero">
            <path d="M21.7142857,10.7327731 C22.0033613,10.4672269 22.1478992,10.087395 22.1478992,9.60672269 C22.1478992,9.08907563 21.8789916,8.64201681 21.3512605,8.28235294 C21.1798319,8.16470588 21.0655462,7.97647059 21.0386555,7.76806723 C21.0117647,7.55966387 21.0722689,7.3512605 21.210084,7.19327731 C21.4117647,6.95798319 21.5159664,6.58487395 21.5159664,6.11092437 C21.5159664,5.43529412 20.9210084,5.04537815 20.4235294,4.83697479 C20.2285714,4.75630252 20.0806723,4.59831933 20.0134454,4.40336134 C19.9428571,4.20504202 19.9596639,3.98991597 20.0605042,3.80504202 C20.1613445,3.62352941 20.2588235,3.33109244 20.1579832,2.67563025 C19.8588235,1.8789916 19.6033613,1.4789916 15.4756303,1.4789916 C12.9781513,1.4789916 11.9865546,1.77142857 11.1092437,2.02689076 L10.8504202,2.10084034 C10.3596639,2.24201681 9.9697479,2.35294118 9.57647059,2.35294118 L6.60504202,2.39327731 L6.60504202,11.4218487 C6.60504202,11.4420168 6.60168067,11.4588235 6.59831933,11.4789916 L6.59831933,11.4890756 C7.5092437,11.9596639 9.43865546,13.2067227 9.64705882,15.3882353 C9.78823529,16.8403361 9.76806723,18.6218487 9.73781513,20.010084 C9.73781513,20.0369748 9.73445378,20.0638655 9.73109244,20.0907563 C9.72436975,20.2084034 9.71428571,20.3058824 9.70420168,20.4067227 L9.68403361,20.6352941 C9.65042017,21.1260504 9.74789916,21.4991597 9.97647059,21.7445378 C10.2890756,22.0773109 10.8201681,22.1478992 11.210084,22.1478992 C12.2789916,22.1478992 12.7327731,21.6806723 12.7327731,20.5109244 L12.7260504,20.3663866 L12.7260504,20.3260504 C12.7260504,18.1378151 12.7159664,15.2605042 12.7159664,15.2605042 C12.7159664,14.8605042 13.0319328,14.5310924 13.4319328,14.5210084 L16.6554622,14.4235294 L20.7294118,14.4235294 C21.1596639,14.4 22.1579832,14.2218487 22.1579832,13.0823529 C22.1579832,12.5109244 22.010084,12.0739496 21.7277311,11.8218487 C21.5731092,11.6840336 21.4857143,11.4857143 21.4857143,11.2773109 C21.4756303,11.0722689 21.5630252,10.8739496 21.7142857,10.7327731 M3.27394958,8.84705882 C2.73613445,8.84705882 2.35966387,9.22352941 2.35966387,9.76134454 C2.35966387,10.2991597 2.73613445,10.6756303 3.27394958,10.6756303 C3.81176471,10.6756303 4.18487395,10.302521 4.18487395,9.76134454 C4.18487395,9.22352941 3.81176471,8.84705882 3.27394958,8.84705882 M23.1663866,11.2773109 C23.4218487,11.6907563 23.6235294,12.2756303 23.6235294,13.0823529 C23.6235294,14.9176471 22.2084034,15.8184874 20.7630252,15.8991597 L16.6689076,15.8991597 L14.1848739,15.9731092 C14.1882353,16.9647059 14.1915966,18.7966387 14.1915966,20.3092437 L14.1983193,20.4672269 C14.1983193,20.4705882 14.2016807,20.5815126 14.2016807,20.5848739 C14.2016807,22.487395 13.0823529,23.6268908 11.2033613,23.6268908 C10.2218487,23.6268908 9.42184874,23.3243697 8.8907563,22.7529412 C8.53781513,22.3697479 8.12773109,21.6739496 8.20840336,20.5344538 L8.23193277,20.2588235 C8.24201681,20.1613445 8.25210084,20.0705882 8.25546218,19.9495798 C8.25546218,19.9327731 8.25882353,19.9159664 8.25882353,19.8991597 C8.28907563,18.5647059 8.30588235,16.8806723 8.17478992,15.5327731 C8.03361345,14.0537815 6.57142857,13.1428571 5.91260504,12.8033613 C5.61680672,13.0319328 5.25042017,13.1731092 4.85042017,13.1731092 L1.74789916,13.1731092 C0.783193277,13.1731092 0,12.389916 0,11.4218487 L0,2.30588235 C0,1.34117647 0.783193277,0.557983193 1.74789916,0.557983193 L4.85714286,0.557983193 C5.28067227,0.557983193 5.66722689,0.715966387 5.9697479,0.968067227 C6.04705882,0.951260504 6.11764706,0.921008403 6.19831933,0.921008403 L9.56638655,0.877310924 C9.76134454,0.877310924 10.0638655,0.793277311 10.4436975,0.678991597 L10.6957983,0.608403361 C11.6201681,0.339495798 12.7697479,0 15.4756303,0 C19.8084034,0 20.8907563,0.396638655 21.5663866,2.22857143 C21.5831933,2.27226891 21.5932773,2.31596639 21.6033613,2.35966387 C21.6941176,2.90756303 21.7008403,3.37815126 21.6168067,3.79495798 C22.5008403,4.34957983 22.994958,5.16638655 22.994958,6.11092437 C22.994958,6.69915966 22.8806723,7.15966387 22.7294118,7.51260504 C23.3142857,8.09411765 23.6268908,8.82016807 23.6268908,9.61008403 C23.6235294,10.3327731 23.4218487,10.8773109 23.1663866,11.2773109" id="No-me-gusta_Dislike_3Masa"></path>
        </g>
    </g>
</svg>

<svg width="24" height="24" viewBox="0 0 24 24" xmlns="http://www.w3.org/2000/svg"><path d="M21.714 10.733c.29-.266.434-.646.434-1.126 0-.518-.269-.965-.797-1.325a.74.74 0 01-.14-1.089c.2-.235.305-.608.305-1.082 0-.676-.595-1.066-1.092-1.274a.725.725 0 01-.41-.434.73.73 0 01.047-.598c.1-.181.198-.474.097-1.13-.3-.796-.555-1.196-4.682-1.196-2.498 0-3.49.292-4.367.548l-.259.074c-.49.141-.88.252-1.274.252l-2.971.04v9.029c0 .02-.003.037-.007.057v.01c.911.47 2.84 1.718 3.05 3.9.14 1.451.12 3.233.09 4.621 0 .027-.004.054-.007.08-.007.118-.017.216-.027.317l-.02.228c-.034.491.064.864.292 1.11.313.332.844.403 1.234.403 1.069 0 1.523-.467 1.523-1.637l-.007-.145v-.04c0-2.188-.01-5.065-.01-5.065 0-.4.316-.73.716-.74l3.223-.097h4.074c.43-.024 1.429-.202 1.429-1.342 0-.571-.148-1.008-.43-1.26a.728.728 0 01-.242-.545.703.703 0 01.228-.544M3.274 8.847c-.538 0-.914.377-.914.914 0 .538.376.915.914.915s.91-.373.91-.915c0-.537-.372-.914-.91-.914m19.892 2.43c.256.414.458.999.458 1.805 0 1.836-1.416 2.736-2.861 2.817h-4.094l-2.484.074c.003.992.007 2.824.007 4.336l.006.158.004.118c0 1.902-1.12 3.042-2.999 3.042-.981 0-1.781-.303-2.312-.874-.353-.383-.763-1.08-.683-2.219l.024-.275c.01-.098.02-.188.023-.31 0-.016.004-.033.004-.05.03-1.334.047-3.018-.084-4.366-.141-1.48-1.604-2.39-2.262-2.73-.296.229-.663.37-1.063.37H1.748A1.75 1.75 0 010 11.422V2.306C0 1.34.783.558 1.748.558h3.11c.423 0 .81.158 1.112.41.077-.017.148-.047.228-.047L9.566.877c.195 0 .498-.084.878-.198l.252-.07C11.62.338 12.77 0 15.476 0c4.332 0 5.415.397 6.09 2.229a.957.957 0 01.037.13c.091.549.098 1.02.014 1.436.884.555 1.378 1.371 1.378 2.316 0 .588-.114 1.049-.266 1.402.585.581.898 1.307.898 2.097-.003.723-.205 1.267-.46 1.667" fill="#5CB615" fill-rule="nonzero"/></svg>
